images/pudding.svg

<?xml version="1.0" encoding="UTF-8"?>
<svg id="pudding" xmlns="http://www.w3.org/2000/svg" width="280" height="200.86" viewBox="0 0 280 200.86">
  <g id="pudding-body">
    <path d="M267.83,170.43v9.13H12.17v-9.13L43.37,12.17h193.26l31.2,158.26Z" style="fill: #ffc197;"/>
    <path d="M58.12,60.87l-21.6,109.57v9.13H12.17v-9.13l21.6-109.57s24.35,0,24.35,0Z" style="fill: #e5965c;"/>
    <path d="M0,170.43h280c0,16.81-13.63,30.43-30.43,30.43H30.43C13.62,200.86,0,187.23,0,170.43H0Z" style="fill: #e9f1df;"/>
    <path d="M24.35,170.43h0c0,16.81,13.63,30.43,30.43,30.43h-24.35c-16.81,0-30.43-13.63-30.43-30.43h24.35Z" style="fill: #d4dbca;"/>
  </g>
  <g id="syrup">
    <g id="drip5">
      <path d="M260.87,73.04h-20.45c3.36,0,6.09,2.73,6.09,6.09v18.24c.1,0,.2.01.3.01,8.27-.15,14.92-6.9,14.92-15.21h-.01s-.85-9.13-.85-9.13Z" style="fill: #ad6251;"/>
      <path d="M240.43,73.04h-9.12v8.78c0,8.43,6.82,15.54,15.21,15.55v-18.24c0-3.36-2.73-6.09-6.09-6.09h0Z" style="fill: #844f41;"/>
    </g>
    <g id="drip4">
      <path d="M191.74,12.18v60.86c8.41,0,15.22-6.82,15.22-15.22V6.09h-21.31c3.36,0,6.09,2.73,6.09,6.09Z" style="fill: #ad6251;"/>
      <path d="M185.64,6.09h-3.04v9.13c0,4.98-2.39,9.39-6.09,12.17v30.43c0,8.41,6.81,15.22,15.22,15.22V12.18c0-3.36-2.73-6.09-6.09-6.09h0Z" style="fill: #844f41;"/>
    </g>
    <g id="drip3">
      <path d="M182.61,15.23V6.1h-21.31c3.36,0,6.09,2.73,6.09,6.09v18.23c.1,0,.19.01.29.01,3.32-.06,6.37-1.18,8.84-3.04h0c3.7-2.77,6.09-7.18,6.09-12.16h0Z" style="fill: #ad6251;"/>
      <path d="M161.3,6.1h-9.13v8.77c0,8.43,6.82,15.54,15.22,15.55V12.2c0-3.36-2.73-6.09-6.09-6.09Z" style="fill: #844f41;"/>
    </g>
    <g id="drip2">
      <path d="M88.25,12.18v30.39c.1,0,.19.01.29.01,8.27-.15,14.92-6.9,14.92-15.21V6.09h-21.3c3.36,0,6.09,2.73,6.09,6.09Z" style="fill: #ad6251;"/>
      <path d="M82.17,6.09h-9.13v20.93c0,8.43,6.82,15.54,15.22,15.55V12.18c0-3.36-2.73-6.09-6.09-6.09Z" style="fill: #844f41;"/>
    </g>
    <g id="drip1">
      <path d="M42.61,82.16v12.01c3.69-2.87,6.08-7.39,6.08-12.37v-8.76h-5.23s-.85,9.12-.85,9.12Z" style="fill: #ad6251;"/>
      <path d="M43.46,73.04h-24.34l-.85,9.13c0,2.07.41,4.04,1.16,5.84,2.26,5.4,7.55,9.23,13.75,9.35,3.54.07,6.81-1.15,9.43-3.19v-12.01l.85-9.12h0Z" style="fill: #844f41;"/>
    </g>
    <g id="syrup-top">
      <path d="M231.31,73.03h9.12s20.45.01,20.45.01l-2.69-28.78c-1.02-10.95-5.53-21.35-13.14-29.28C236.12,5.68,223.58,0,209.91,0h-115.48C80.77,0,68.23,5.68,59.29,14.97c-7.61,7.93-12.12,18.34-13.14,29.28l-2.69,28.79h5.23v-.03h24.35v.03h30.43v-.02h48.7v.02h54.79s24.35-.01,24.35-.01Z" style="fill: #ad6251;"/>
      <path d="M34.94,14.98c-7.61,7.93-12.12,18.33-13.14,29.28l-2.69,28.78h24.34l2.69-28.79c1.02-10.94,5.53-21.35,13.14-29.28C68.23,5.68,80.76,0,94.43,0h-24.34c-8.09,0-15.77,2-22.56,5.55-4.69,2.45-8.94,5.63-12.59,9.43h0Z" style="fill: #844f41;"/>
    </g>
  </g>
</svg>

<?xml version="1.0" encoding="iso-8859-1"?>
<!-- Generator: Adobe Illustrator 29.5.1, SVG Export Plug-In . SVG Version: 9.03 Build 0)  -->
<svg version="1.1" id="pudding" xmlns="http://www.w3.org/2000/svg" xmlns:xlink="http://www.w3.org/1999/xlink" x="0px" y="0px"
	 viewBox="0 0 280 200.86" style="enable-background:new 0 0 280 200.86;" xml:space="preserve">
<g id="pudding-body">
	<path style="fill:#FFC197;" d="M267.83,170.43v9.13H12.17v-9.13l31.2-158.26h193.26L267.83,170.43z"/>
	<path style="fill:#E5965C;" d="M58.12,60.87l-21.6,109.57v9.13H12.17v-9.13l21.6-109.57C33.77,60.87,58.12,60.87,58.12,60.87z"/>
</g>
<g id="syrup">
	<g id="drip5">
		<path style="fill:#AD6251;" d="M260.87,73.04h-20.45c3.36,0,6.09,2.73,6.09,6.09v18.24c0.1,0,0.2,0.01,0.3,0.01
			c8.27-0.15,14.92-6.9,14.92-15.21h-0.01C261.72,82.17,260.87,73.04,260.87,73.04z"/>
		<path style="fill:#844F41;" d="M240.43,73.04h-9.12v8.78c0,8.43,6.82,15.54,15.21,15.55V79.13
			C246.52,75.77,243.79,73.04,240.43,73.04L240.43,73.04L240.43,73.04z"/>
	</g>
	<g id="drip4">
		<path style="fill:#AD6251;" d="M191.74,12.18v60.86c8.41,0,15.22-6.82,15.22-15.22V6.09h-21.31
			C189.01,6.09,191.74,8.82,191.74,12.18z"/>
		<path style="fill:#844F41;" d="M185.64,6.09h-3.04v9.13c0,4.98-2.39,9.39-6.09,12.17v30.43c0,8.41,6.81,15.22,15.22,15.22V12.18
			C191.73,8.82,189,6.09,185.64,6.09L185.64,6.09L185.64,6.09z"/>
	</g>
	<g id="drip3">
		<path style="fill:#AD6251;" d="M182.61,15.23V6.1H161.3c3.36,0,6.09,2.73,6.09,6.09v18.23c0.1,0,0.19,0.01,0.29,0.01
			c3.32-0.06,6.37-1.18,8.84-3.04l0,0C180.22,24.62,182.61,20.21,182.61,15.23L182.61,15.23L182.61,15.23z"/>
		<path style="fill:#844F41;" d="M161.3,6.1h-9.13v8.77c0,8.43,6.82,15.54,15.22,15.55V12.2c0-3.36-2.73-6.09-6.09-6.09V6.1z"/>
	</g>
	<g id="drip2">
		<path style="fill:#AD6251;" d="M88.25,12.18v30.39c0.1,0,0.19,0.01,0.29,0.01c8.27-0.15,14.92-6.9,14.92-15.21V6.09h-21.3
			C85.52,6.09,88.25,8.82,88.25,12.18z"/>
		<path style="fill:#844F41;" d="M82.17,6.09h-9.13v20.93c0,8.43,6.82,15.54,15.22,15.55V12.18C88.26,8.82,85.53,6.09,82.17,6.09z"
			/>
	</g>
	<g id="drip1">
		<path style="fill:#AD6251;" d="M42.61,82.16v12.01c3.69-2.87,6.08-7.39,6.08-12.37v-8.76h-5.23
			C43.46,73.04,42.61,82.16,42.61,82.16z"/>
		<path style="fill:#844F41;" d="M43.46,73.04H19.12l-0.85,9.13c0,2.07,0.41,4.04,1.16,5.84c2.26,5.4,7.55,9.23,13.75,9.35
			c3.54,0.07,6.81-1.15,9.43-3.19V82.16L43.46,73.04L43.46,73.04L43.46,73.04z"/>
	</g>
	<g id="syrup-top">
		<path style="fill:#AD6251;" d="M231.31,73.03h9.12l20.45,0.01l-2.69-28.78c-1.02-10.95-5.53-21.35-13.14-29.28
			C236.12,5.68,223.58,0,209.91,0H94.43c-13.66,0-26.2,5.68-35.14,14.97c-7.61,7.93-12.12,18.34-13.14,29.28l-2.69,28.79h5.23v-0.03
			h24.35v0.03h30.43v-0.02h48.7v0.02h54.79L231.31,73.03z"/>
		<path style="fill:#844F41;" d="M34.94,14.98c-7.61,7.93-12.12,18.33-13.14,29.28l-2.69,28.78h24.34l2.69-28.79
			c1.02-10.94,5.53-21.35,13.14-29.28C68.23,5.68,80.76,0,94.43,0H70.09C62,0,54.32,2,47.53,5.55C42.84,8,38.59,11.18,34.94,14.98
			C34.94,14.98,34.94,14.98,34.94,14.98z"/>
	</g>
</g>
<g id="plate">
	<path style="fill:#E9F1DF;" d="M0,170.43h280c0,16.81-13.63,30.43-30.43,30.43H30.43C13.62,200.86,0,187.23,0,170.43L0,170.43z"/>
	<path style="fill:#D4DBCA;" d="M24.35,170.43L24.35,170.43c0,16.81,13.63,30.43,30.43,30.43H30.43C13.62,200.86,0,187.23,0,170.43
		C0,170.43,24.35,170.43,24.35,170.43z"/>
</g>
</svg>
